public/logos/3V.svg

<?xml version="1.0" encoding="UTF-8"?>
<svg xmlns="http://www.w3.org/2000/svg" xmlns:xlink="http://www.w3.org/1999/xlink" width="176pt" height="58.68pt" viewBox="0 0 176 58.68" version="1.1">
<defs>
<clipPath id="clip1">
  <path d="M 0 0 L 176 0 L 176 58.679688 L 0 58.679688 Z M 0 0 "/>
</clipPath>
</defs>
<g id="surface1">
<path style=" stroke:none;fill-rule:nonzero;fill:rgb(94.744873%,32.450867%,10.507202%);fill-opacity:1;" d="M 82.75 42.785156 L 82.75 29.09375 L 83.070312 29.582031 L 93.25 42.785156 L 102.3125 42.785156 L 102.3125 15.886719 L 93.25 15.886719 L 93.246094 29.582031 L 92.925781 29.09375 L 82.75 15.886719 L 73.6875 15.886719 L 73.6875 42.785156 L 82.75 42.785156 "/>
<path style=" stroke:none;fill-rule:nonzero;fill:rgb(94.744873%,32.450867%,10.507202%);fill-opacity:1;" d="M 17.492188 15.886719 L 46.121094 15.886719 L 46.121094 23.222656 L 38.433594 23.222656 L 36.578125 23.183594 L 36.578125 42.785156 L 27.035156 42.785156 L 27.035156 23.183594 L 25.179688 23.222656 L 17.492188 23.222656 L 17.492188 15.886719 "/>
<path style=" stroke:none;fill-rule:nonzero;fill:rgb(94.744873%,32.450867%,10.507202%);fill-opacity:1;" d="M 129.878906 15.886719 L 158.503906 15.886719 L 158.503906 23.222656 L 150.816406 23.222656 L 148.964844 23.183594 L 148.964844 42.785156 L 139.417969 42.785156 L 139.417969 23.183594 L 137.5625 23.222656 L 129.878906 23.222656 L 129.878906 15.886719 "/>
<g clip-path="url(#clip1)" clip-rule="nonzero">
<path style=" stroke:none;fill-rule:nonzero;fill:rgb(94.744873%,32.450867%,10.507202%);fill-opacity:1;" d="M 144.191406 51.832031 C 157.65625 51.832031 168.578125 41.765625 168.578125 29.335938 C 168.578125 16.910156 157.65625 6.84375 144.191406 6.84375 C 130.722656 6.84375 119.804688 16.910156 119.804688 29.335938 C 119.804688 41.765625 130.722656 51.832031 144.191406 51.832031 M 87.996094 51.832031 C 101.46875 51.832031 112.382812 41.765625 112.382812 29.335938 C 112.382812 16.910156 101.46875 6.84375 87.996094 6.84375 C 74.53125 6.84375 63.609375 16.910156 63.609375 29.335938 C 63.613281 41.765625 74.53125 51.832031 87.996094 51.832031 Z M 31.808594 51.832031 C 45.273438 51.832031 56.191406 41.765625 56.191406 29.335938 C 56.191406 16.910156 45.273438 6.84375 31.808594 6.84375 C 18.339844 6.84375 7.421875 16.910156 7.421875 29.335938 C 7.421875 41.765625 18.339844 51.832031 31.808594 51.832031 Z M 176 29.335938 C 176 45.542969 161.757812 58.679688 144.191406 58.679688 C 132.011719 58.679688 121.4375 52.355469 116.097656 43.078125 C 110.75 52.355469 100.179688 58.679688 87.996094 58.679688 C 75.816406 58.679688 65.246094 52.359375 59.902344 43.078125 C 54.558594 52.355469 43.988281 58.679688 31.808594 58.679688 C 14.238281 58.679688 0 45.542969 0 29.335938 C 0 13.132812 14.238281 -0.00390625 31.808594 -0.00390625 C 43.988281 -0.00390625 54.558594 6.316406 59.902344 15.597656 C 65.246094 6.320312 75.816406 -0.00390625 87.996094 -0.00390625 C 100.179688 -0.00390625 110.75 6.316406 116.097656 15.597656 C 121.4375 6.320312 132.011719 -0.00390625 144.191406 -0.00390625 C 161.757812 -0.00390625 176 13.132812 176 29.335938 "/>
</g>
</g>
</svg>

<svg xmlns="http://www.w3.org/2000/svg" width="176pt" height="78.24" viewBox="0 0 176 58.68"><defs><clipPath id="a"><path d="M0 0h176v58.68H0Zm0 0"/></clipPath></defs><path d="M82.75 42.785V29.094l.32.488 10.18 13.203h9.063V15.887H93.25l-.004 13.695-.32-.488L82.75 15.887h-9.062v26.898zM17.492 15.887h28.63v7.336h-7.688l-1.856-.04v19.602h-9.543V23.184l-1.855.039h-7.688zM129.879 15.887h28.625v7.336h-7.688l-1.851-.04v19.602h-9.547V23.184l-1.856.039h-7.683z" style="stroke:none;fill-rule:nonzero;fill:#f2531b;fill-opacity:1"/><g clip-path="url(#a)"><path d="M144.191 51.832c13.465 0 24.387-10.066 24.387-22.496 0-12.426-10.922-22.492-24.387-22.492-13.468 0-24.386 10.066-24.386 22.492 0 12.43 10.918 22.496 24.386 22.496m-56.195 0c13.473 0 24.387-10.066 24.387-22.496 0-12.426-10.914-22.492-24.387-22.492-13.465 0-24.387 10.066-24.387 22.492.004 12.43 10.922 22.496 24.387 22.496m-56.187 0c13.464 0 24.382-10.066 24.382-22.496 0-12.426-10.918-22.492-24.382-22.492-13.47 0-24.387 10.066-24.387 22.492 0 12.43 10.918 22.496 24.387 22.496M176 29.336c0 16.207-14.242 29.344-31.809 29.344-12.18 0-22.754-6.325-28.093-15.602-5.348 9.277-15.918 15.602-28.102 15.602-12.18 0-22.75-6.32-28.094-15.602C54.56 52.355 43.988 58.68 31.81 58.68 14.239 58.68 0 45.543 0 29.336 0 13.133 14.238-.004 31.809-.004c12.18 0 22.75 6.32 28.093 15.602C65.246 6.32 75.816-.004 87.996-.004c12.184 0 22.754 6.32 28.102 15.602C121.438 6.32 132.012-.004 144.19-.004 161.758-.004 176 13.133 176 29.336" style="stroke:none;fill-rule:nonzero;fill:#f2531b;fill-opacity:1"/></g></svg>
